src/assets/images/Original-Graphics/8.svg

<svg xmlns="http://www.w3.org/2000/svg" xmlns:xlink="http://www.w3.org/1999/xlink" width="100" zoomAndPan="magnify" viewBox="0 0 75 74.999997" height="100" preserveAspectRatio="xMidYMid meet" version="1.0"><defs><clipPath id="781ad18137"><path d="M 12.785156 16 L 62.285156 16 L 62.285156 51 L 12.785156 51 Z M 12.785156 16 " clip-rule="nonzero"/></clipPath></defs><g clip-path="url(#781ad18137)"><path fill="#b13ed9" d="M 58.644531 50.710938 L 16.351562 50.710938 C 14.378906 50.710938 12.785156 49.117188 12.785156 47.144531 L 12.785156 19.816406 C 12.785156 17.84375 14.378906 16.25 16.351562 16.25 L 58.644531 16.25 C 60.617188 16.25 62.214844 17.84375 62.214844 19.816406 L 62.214844 47.144531 C 62.214844 49.117188 60.617188 50.710938 58.644531 50.710938 Z M 16.351562 17.410156 C 15.046875 17.410156 13.945312 18.484375 13.945312 19.816406 L 13.945312 47.144531 C 13.945312 48.476562 15.046875 49.550781 16.351562 49.550781 L 58.644531 49.550781 C 59.980469 49.550781 61.054688 48.476562 61.054688 47.144531 L 61.054688 19.816406 C 61.054688 18.484375 59.980469 17.410156 58.644531 17.410156 Z M 16.351562 17.410156 " fill-opacity="1" fill-rule="evenodd"/></g><path fill="#b13ed9" d="M 57.601562 44.53125 L 17.425781 44.53125 C 16.175781 44.53125 15.191406 43.574219 15.191406 42.328125 L 15.191406 20.976562 C 15.191406 19.816406 16.207031 18.859375 17.425781 18.859375 L 57.601562 18.859375 C 58.820312 18.859375 59.804688 19.816406 59.804688 20.976562 L 59.804688 42.328125 C 59.804688 43.574219 58.847656 44.53125 57.601562 44.53125 Z M 17.425781 20.019531 C 16.84375 20.019531 16.351562 20.457031 16.351562 20.976562 L 16.351562 42.328125 C 16.351562 42.996094 16.902344 43.371094 17.425781 43.371094 L 57.601562 43.371094 C 58.125 43.371094 58.644531 42.996094 58.644531 42.328125 L 58.644531 20.976562 C 58.644531 20.457031 58.179688 20.019531 57.601562 20.019531 Z M 17.425781 20.019531 " fill-opacity="1" fill-rule="evenodd"/><path fill="#b13ed9" d="M 37.5 48.796875 C 36.484375 48.796875 35.671875 48.015625 35.671875 47.058594 C 35.671875 46.070312 36.511719 45.230469 37.5 45.230469 C 38.515625 45.230469 39.355469 46.070312 39.355469 47.058594 C 39.355469 48.015625 38.542969 48.796875 37.5 48.796875 Z M 37.5 46.390625 C 37.152344 46.390625 36.832031 46.707031 36.832031 47.058594 C 36.832031 47.433594 37.179688 47.636719 37.5 47.636719 C 37.847656 47.636719 38.195312 47.433594 38.195312 47.058594 C 38.195312 46.707031 37.875 46.390625 37.5 46.390625 Z M 37.5 46.390625 " fill-opacity="1" fill-rule="evenodd"/><path fill="#b13ed9" d="M 43.53125 56.339844 L 30.738281 56.339844 C 30.421875 56.339844 30.160156 56.078125 30.160156 55.757812 L 30.160156 50.132812 C 30.160156 49.8125 30.421875 49.550781 30.738281 49.550781 L 43.53125 49.550781 C 43.851562 49.550781 44.113281 49.8125 44.113281 50.132812 L 44.113281 55.757812 C 44.113281 56.078125 43.851562 56.339844 43.53125 56.339844 Z M 31.320312 55.179688 L 42.953125 55.179688 L 42.953125 50.710938 L 31.320312 50.710938 Z M 31.320312 55.179688 " fill-opacity="1" fill-rule="evenodd"/><path fill="#b13ed9" d="M 47.824219 58.746094 L 26.503906 58.746094 C 25.808594 58.746094 25.257812 58.195312 25.257812 57.46875 L 25.257812 56.425781 C 25.257812 55.699219 25.808594 55.148438 26.503906 55.148438 L 47.824219 55.148438 C 48.550781 55.148438 49.101562 55.699219 49.101562 56.425781 L 49.101562 57.46875 C 49.101562 58.195312 48.550781 58.746094 47.824219 58.746094 Z M 26.503906 56.308594 C 26.445312 56.308594 26.417969 56.339844 26.417969 56.425781 L 26.417969 57.46875 C 26.417969 57.558594 26.445312 57.585938 26.503906 57.585938 L 47.824219 57.585938 C 47.914062 57.585938 47.941406 57.558594 47.941406 57.46875 L 47.941406 56.425781 C 47.941406 56.339844 47.914062 56.308594 47.824219 56.308594 Z M 26.503906 56.308594 " fill-opacity="1" fill-rule="evenodd"/><path fill="#b13ed9" d="M 22.355469 33.917969 C 22.210938 33.917969 22.066406 33.859375 21.949219 33.769531 C 21.71875 33.539062 21.71875 33.191406 21.921875 32.957031 L 27.808594 26.578125 C 28.042969 26.34375 28.390625 26.316406 28.621094 26.546875 C 28.855469 26.75 28.882812 27.128906 28.652344 27.359375 L 22.761719 33.742188 C 22.644531 33.859375 22.5 33.917969 22.355469 33.917969 Z M 34.019531 29.972656 C 33.929688 29.972656 33.816406 29.941406 33.726562 29.855469 L 29.550781 27.15625 C 29.289062 26.984375 29.230469 26.636719 29.40625 26.375 C 29.578125 26.082031 29.925781 26.027344 30.1875 26.199219 L 34.335938 28.898438 C 34.625 29.070312 34.683594 29.417969 34.511719 29.710938 C 34.394531 29.882812 34.21875 29.972656 34.019531 29.972656 Z M 35.757812 29.769531 C 35.613281 29.769531 35.46875 29.710938 35.351562 29.59375 C 35.121094 29.363281 35.148438 29.015625 35.351562 28.78125 L 40.285156 23.9375 C 40.515625 23.734375 40.890625 23.734375 41.09375 23.964844 C 41.328125 24.199219 41.328125 24.546875 41.09375 24.777344 L 36.164062 29.59375 C 36.078125 29.710938 35.902344 29.769531 35.757812 29.769531 Z M 35.757812 29.769531 " fill-opacity="1" fill-rule="evenodd"/><path fill="#b13ed9" d="M 25.34375 44.53125 L 20.617188 44.53125 C 20.296875 44.53125 20.035156 44.273438 20.035156 43.953125 L 20.035156 39.425781 C 20.035156 39.109375 20.296875 38.847656 20.617188 38.847656 L 25.34375 38.847656 C 25.664062 38.847656 25.925781 39.109375 25.925781 39.425781 L 25.925781 43.953125 C 25.925781 44.273438 25.664062 44.53125 25.34375 44.53125 Z M 21.195312 43.371094 L 24.765625 43.371094 L 24.765625 40.007812 L 21.195312 40.007812 Z M 21.195312 43.371094 " fill-opacity="1" fill-rule="evenodd"/><path fill="#b13ed9" d="M 31.8125 44.589844 L 27.085938 44.589844 C 26.765625 44.589844 26.503906 44.328125 26.503906 44.011719 L 26.503906 32.089844 C 26.503906 31.769531 26.765625 31.507812 27.085938 31.507812 L 31.8125 31.507812 C 32.132812 31.507812 32.394531 31.769531 32.394531 32.089844 L 32.394531 44.011719 C 32.394531 44.328125 32.132812 44.589844 31.8125 44.589844 Z M 27.664062 43.429688 L 31.234375 43.429688 L 31.234375 32.667969 L 27.664062 32.667969 Z M 27.664062 43.429688 " fill-opacity="1" fill-rule="evenodd"/><path fill="#b13ed9" d="M 38.367188 44.589844 L 33.640625 44.589844 C 33.320312 44.589844 33.058594 44.359375 33.058594 44.011719 L 33.058594 34.03125 C 33.058594 33.683594 33.320312 33.453125 33.640625 33.453125 L 38.367188 33.453125 C 38.6875 33.453125 38.949219 33.683594 38.949219 34.03125 L 38.949219 44.011719 C 38.949219 44.359375 38.6875 44.589844 38.367188 44.589844 Z M 34.21875 43.460938 L 37.789062 43.460938 L 37.789062 34.582031 L 34.21875 34.582031 Z M 34.21875 43.460938 " fill-opacity="1" fill-rule="evenodd"/><path fill="#b13ed9" d="M 44.925781 44.589844 L 40.226562 44.589844 C 39.90625 44.589844 39.644531 44.328125 39.644531 44.011719 L 39.644531 28.40625 C 39.644531 28.085938 39.90625 27.824219 40.226562 27.824219 L 44.925781 27.824219 C 45.242188 27.824219 45.503906 28.085938 45.503906 28.40625 L 45.503906 44.011719 C 45.503906 44.328125 45.242188 44.589844 44.925781 44.589844 Z M 40.804688 43.429688 L 44.34375 43.429688 L 44.34375 28.984375 L 40.804688 28.984375 Z M 40.804688 43.429688 " fill-opacity="1" fill-rule="evenodd"/><path fill="#b13ed9" d="M 21.660156 35.945312 C 20.761719 35.945312 20.035156 35.191406 20.035156 34.207031 C 20.035156 33.308594 20.761719 32.582031 21.660156 32.582031 C 22.644531 32.582031 23.402344 33.277344 23.402344 34.207031 C 23.402344 35.191406 22.675781 35.945312 21.660156 35.945312 Z M 21.660156 33.742188 C 21.429688 33.742188 21.195312 33.945312 21.195312 34.207031 C 21.195312 34.554688 21.398438 34.785156 21.660156 34.785156 C 22.039062 34.785156 22.242188 34.554688 22.242188 34.207031 C 22.242188 33.945312 22.007812 33.742188 21.660156 33.742188 Z M 21.660156 33.742188 " fill-opacity="1" fill-rule="evenodd"/><path fill="#b13ed9" d="M 29 27.824219 C 28.011719 27.824219 27.289062 27.097656 27.289062 26.113281 C 27.289062 25.183594 28.042969 24.460938 29 24.460938 C 29.925781 24.460938 30.652344 25.183594 30.652344 26.113281 C 30.652344 27.070312 29.925781 27.824219 29 27.824219 Z M 29 25.621094 C 28.679688 25.621094 28.417969 25.824219 28.417969 26.113281 C 28.417969 26.460938 28.652344 26.691406 29 26.691406 C 29.289062 26.691406 29.492188 26.433594 29.492188 26.113281 C 29.492188 25.851562 29.261719 25.621094 29 25.621094 Z M 29 25.621094 " fill-opacity="1" fill-rule="evenodd"/><path fill="#b13ed9" d="M 35.003906 31.59375 C 34.105469 31.59375 33.351562 30.871094 33.351562 29.972656 C 33.351562 29.042969 34.132812 28.230469 35.003906 28.230469 C 35.902344 28.230469 36.746094 29.070312 36.746094 29.972656 C 36.746094 30.839844 35.933594 31.59375 35.003906 31.59375 Z M 35.003906 29.390625 C 34.773438 29.390625 34.511719 29.679688 34.511719 29.972656 C 34.511719 30.230469 34.742188 30.433594 35.003906 30.433594 C 35.265625 30.433594 35.585938 30.203125 35.585938 29.972656 C 35.585938 29.710938 35.265625 29.390625 35.003906 29.390625 Z M 35.003906 29.390625 " fill-opacity="1" fill-rule="evenodd"/><path fill="#b13ed9" d="M 41.269531 25.125 C 40.371094 25.125 39.644531 24.402344 39.644531 23.503906 C 39.644531 22.515625 40.339844 21.761719 41.269531 21.761719 C 42.226562 21.761719 43.011719 22.546875 43.011719 23.503906 C 43.011719 24.371094 42.199219 25.125 41.269531 25.125 Z M 41.269531 22.921875 C 41.007812 22.921875 40.804688 23.152344 40.804688 23.503906 C 40.804688 23.761719 41.007812 23.964844 41.269531 23.964844 C 41.558594 23.964844 41.851562 23.734375 41.851562 23.503906 C 41.851562 23.152344 41.558594 22.921875 41.269531 22.921875 Z M 41.269531 22.921875 " fill-opacity="1" fill-rule="evenodd"/><path fill="#b13ed9" d="M 51.800781 33.625 C 50.292969 33.625 48.871094 33.046875 47.824219 32 C 46.78125 30.957031 46.199219 29.535156 46.199219 28.027344 C 46.199219 26.519531 46.78125 25.125 47.824219 24.054688 C 48.871094 23.007812 50.292969 22.429688 51.800781 22.429688 C 54.875 22.429688 57.398438 24.953125 57.398438 28.027344 C 57.398438 31.132812 54.875 33.625 51.800781 33.625 Z M 51.800781 23.589844 C 49.304688 23.589844 47.359375 25.53125 47.359375 28.027344 C 47.359375 30.523438 49.304688 32.464844 51.800781 32.464844 C 54.234375 32.464844 56.238281 30.492188 56.238281 28.027344 C 56.238281 25.589844 54.234375 23.589844 51.800781 23.589844 Z M 51.800781 23.589844 " fill-opacity="1" fill-rule="evenodd"/><path fill="#b13ed9" d="M 56.816406 28.609375 L 51.800781 28.609375 C 51.480469 28.609375 51.21875 28.347656 51.21875 28.027344 L 51.21875 23.007812 C 51.21875 22.691406 51.480469 22.429688 51.800781 22.429688 C 52.117188 22.429688 52.378906 22.691406 52.378906 23.007812 L 52.378906 27.449219 L 56.816406 27.449219 C 57.136719 27.449219 57.398438 27.707031 57.398438 28.027344 C 57.398438 28.347656 57.136719 28.609375 56.816406 28.609375 Z M 56.816406 28.609375 " fill-opacity="1" fill-rule="evenodd"/><path fill="#b13ed9" d="M 48.117188 32.089844 C 47.96875 32.089844 47.824219 32.03125 47.710938 31.914062 C 47.476562 31.683594 47.507812 31.304688 47.738281 31.074219 L 51.394531 27.621094 C 51.625 27.390625 52.003906 27.390625 52.207031 27.621094 C 52.4375 27.851562 52.4375 28.230469 52.207031 28.460938 L 48.523438 31.914062 C 48.40625 32.03125 48.261719 32.089844 48.117188 32.089844 Z M 48.117188 32.089844 " fill-opacity="1" fill-rule="evenodd"/><path fill="#b13ed9" d="M 53.539062 36.902344 L 47.824219 36.902344 C 47.507812 36.902344 47.273438 36.644531 47.273438 36.324219 C 47.273438 36.003906 47.507812 35.742188 47.824219 35.742188 L 53.539062 35.742188 C 53.859375 35.742188 54.121094 36.003906 54.121094 36.324219 C 54.121094 36.644531 53.859375 36.902344 53.539062 36.902344 Z M 53.539062 36.902344 " fill-opacity="1" fill-rule="evenodd"/><path fill="#b13ed9" d="M 53.539062 39.339844 L 47.824219 39.339844 C 47.507812 39.339844 47.273438 39.078125 47.273438 38.761719 C 47.273438 38.441406 47.507812 38.179688 47.824219 38.179688 L 53.539062 38.179688 C 53.859375 38.179688 54.121094 38.441406 54.121094 38.761719 C 54.121094 39.078125 53.859375 39.339844 53.539062 39.339844 Z M 53.539062 39.339844 " fill-opacity="1" fill-rule="evenodd"/><path fill="#b13ed9" d="M 53.539062 41.75 L 47.824219 41.75 C 47.507812 41.75 47.273438 41.488281 47.273438 41.167969 C 47.273438 40.847656 47.507812 40.589844 47.824219 40.589844 L 53.539062 40.589844 C 53.859375 40.589844 54.121094 40.847656 54.121094 41.167969 C 54.121094 41.488281 53.859375 41.75 53.539062 41.75 Z M 53.539062 41.75 " fill-opacity="1" fill-rule="evenodd"/><path fill="#b13ed9" d="M 57.195312 36.902344 L 55.65625 36.902344 C 55.339844 36.902344 55.078125 36.644531 55.078125 36.324219 C 55.078125 36.003906 55.339844 35.742188 55.65625 35.742188 L 57.195312 35.742188 C 57.515625 35.742188 57.773438 36.003906 57.773438 36.324219 C 57.773438 36.644531 57.515625 36.902344 57.195312 36.902344 Z M 57.195312 36.902344 " fill-opacity="1" fill-rule="evenodd"/><path fill="#b13ed9" d="M 57.195312 39.339844 L 55.65625 39.339844 C 55.339844 39.339844 55.078125 39.078125 55.078125 38.761719 C 55.078125 38.441406 55.339844 38.179688 55.65625 38.179688 L 57.195312 38.179688 C 57.515625 38.179688 57.773438 38.441406 57.773438 38.761719 C 57.773438 39.078125 57.515625 39.339844 57.195312 39.339844 Z M 57.195312 39.339844 " fill-opacity="1" fill-rule="evenodd"/><path fill="#b13ed9" d="M 57.195312 41.75 L 55.65625 41.75 C 55.339844 41.75 55.078125 41.488281 55.078125 41.167969 C 55.078125 40.847656 55.339844 40.589844 55.65625 40.589844 L 57.195312 40.589844 C 57.515625 40.589844 57.773438 40.847656 57.773438 41.167969 C 57.773438 41.488281 57.515625 41.75 57.195312 41.75 Z M 57.195312 41.75 " fill-opacity="1" fill-rule="evenodd"/></svg>

<svg xmlns="http://www.w3.org/2000/svg" width="100" height="100" viewBox="0 0 75 75"><defs><clipPath id="a"><path d="M12.79 16h49.5v35h-49.5Zm0 0"/></clipPath></defs><g clip-path="url(#a)"><path fill="currentColor" fill-rule="evenodd" d="M58.64 50.71H16.35a3.56 3.56 0 0 1-3.56-3.57V19.82a3.56 3.56 0 0 1 3.56-3.57h42.3c1.97 0 3.56 1.6 3.56 3.57v27.32c0 1.98-1.6 3.57-3.57 3.57m-42.29-33.3c-1.3 0-2.4 1.07-2.4 2.4v27.33c0 1.34 1.1 2.41 2.4 2.41h42.3a2.4 2.4 0 0 0 2.4-2.4V19.81a2.4 2.4 0 0 0-2.4-2.41Zm0 0"/></g><path fill="currentColor" fill-rule="evenodd" d="M57.6 44.53H17.43a2.2 2.2 0 0 1-2.24-2.2V20.98c0-1.16 1.02-2.12 2.24-2.12H57.6c1.22 0 2.2.96 2.2 2.12v21.35c0 1.24-.95 2.2-2.2 2.2M17.43 20.02c-.59 0-1.08.44-1.08.96v21.35c0 .67.55 1.04 1.08 1.04H57.6c.52 0 1.04-.37 1.04-1.04V20.98c0-.52-.46-.96-1.04-.96ZM37.5 48.8a1.8 1.8 0 0 1-1.83-1.74c0-.99.84-1.83 1.83-1.83 1.02 0 1.86.84 1.86 1.83 0 .96-.82 1.74-1.86 1.74m0-2.4a.7.7 0 0 0-.67.66c0 .37.35.58.67.58.35 0 .7-.2.7-.58a.7.7 0 0 0-.7-.67m6.03 9.95h-12.8a.6.6 0 0 1-.57-.58v-5.63c0-.32.26-.58.58-.58h12.8c.31 0 .57.26.57.58v5.63c0 .32-.26.58-.58.58m-12.21-1.16h11.63v-4.47H31.32Zm0 0"/><path fill="currentColor" fill-rule="evenodd" d="M47.82 58.75H26.5c-.7 0-1.24-.55-1.24-1.28v-1.04c0-.73.55-1.28 1.24-1.28h21.32c.73 0 1.28.55 1.28 1.28v1.04c0 .73-.55 1.28-1.28 1.28M26.5 56.3q-.08 0-.08.12v1.04q0 .13.08.12h21.32q.13 0 .12-.12v-1.04q0-.13-.12-.12Zm-4.14-22.38a.7.7 0 0 1-.41-.15.6.6 0 0 1-.03-.81l5.89-6.38c.23-.24.58-.26.81-.03.24.2.26.58.03.8l-5.89 6.4a.6.6 0 0 1-.4.17m11.66-3.95a.4.4 0 0 1-.3-.11l-4.17-2.7a.55.55 0 0 1-.14-.79c.17-.29.52-.34.78-.17l4.15 2.7c.28.17.34.52.17.81a.6.6 0 0 1-.49.26m1.74-.2a.6.6 0 0 1-.4-.18c-.24-.23-.21-.57 0-.8l4.93-4.85c.23-.2.6-.2.8.02.24.24.24.59 0 .82l-4.93 4.81c-.08.12-.26.18-.4.18M25.34 44.53h-4.72a.6.6 0 0 1-.58-.58v-4.52c0-.32.26-.58.58-.58h4.72c.32 0 .59.26.59.58v4.52c0 .32-.27.58-.59.58m-4.14-1.16h3.57v-3.36H21.2Zm10.61 1.22H27.1a.6.6 0 0 1-.59-.58V32.1c0-.32.27-.58.59-.58h4.72c.32 0 .58.26.58.58v11.92c0 .32-.26.58-.58.58m-4.15-1.16h3.57V32.67h-3.57Zm10.7 1.15h-4.73a.56.56 0 0 1-.58-.58v-9.98c0-.35.26-.58.58-.58h4.73c.32 0 .58.23.58.58v9.98c0 .35-.26.58-.58.58m-4.15-1.13h3.57v-8.88h-3.57Zm10.71 1.13h-4.7a.6.6 0 0 1-.59-.58v-15.6a.6.6 0 0 1 .59-.59h4.7c.31 0 .57.27.57.59V44c0 .32-.26.58-.57.58m-4.13-1.16h3.54V28.98H40.8Zm0 0"/><path fill="currentColor" fill-rule="evenodd" d="M21.66 35.95c-.9 0-1.62-.76-1.62-1.74 0-.9.72-1.63 1.62-1.63.98 0 1.74.7 1.74 1.63a1.7 1.7 0 0 1-1.74 1.74m0-2.2c-.23 0-.46.2-.46.46 0 .34.2.58.46.58.38 0 .58-.24.58-.58 0-.26-.23-.47-.58-.47M29 27.82c-.99 0-1.71-.72-1.71-1.7 0-.94.75-1.66 1.71-1.66.93 0 1.65.72 1.65 1.65 0 .96-.72 1.71-1.65 1.71m0-2.2c-.32 0-.58.2-.58.5 0 .34.23.57.58.57.29 0 .5-.26.5-.58a.5.5 0 0 0-.5-.49m6 5.98c-.9 0-1.65-.73-1.65-1.63 0-.93.78-1.74 1.65-1.74.9 0 1.75.84 1.75 1.74 0 .87-.82 1.62-1.75 1.62m0-2.2c-.23 0-.49.28-.49.57 0 .26.23.46.5.46.26 0 .58-.23.58-.46 0-.26-.32-.58-.59-.58m6.27-4.25c-.9 0-1.63-.73-1.63-1.63 0-.98.7-1.74 1.63-1.74.96 0 1.74.79 1.74 1.74 0 .87-.81 1.63-1.74 1.63m0-2.2c-.26 0-.47.22-.47.57 0 .26.2.46.47.46.29 0 .58-.23.58-.46 0-.35-.3-.58-.58-.58M51.8 33.63A5.6 5.6 0 0 1 47.82 32a5.64 5.64 0 0 1 0-7.95 5.62 5.62 0 0 1 9.57 3.97 5.6 5.6 0 0 1-5.59 5.6m0-10.04a4.4 4.4 0 0 0-4.44 4.44c0 2.5 1.94 4.43 4.44 4.43a4.44 4.44 0 0 0 0-8.87m0 0"/><path fill="currentColor" fill-rule="evenodd" d="M56.82 28.6H51.8a.6.6 0 0 1-.58-.57V23a.58.58 0 0 1 1.16 0v4.44h4.44a.58.58 0 1 1 0 1.16m0 0"/><path fill="currentColor" fill-rule="evenodd" d="M48.12 32.09a.6.6 0 0 1-.4-.18c-.24-.23-.21-.6.02-.84l3.65-3.45a.57.57 0 0 1 .82 0 .6.6 0 0 1 0 .84l-3.69 3.45a.6.6 0 0 1-.4.18m5.42 4.81h-5.72c-.31 0-.55-.26-.55-.58s.24-.58.55-.58h5.72a.58.58 0 1 1 0 1.16m0 2.44h-5.72c-.31 0-.55-.26-.55-.58s.24-.58.55-.58h5.72a.58.58 0 0 1 0 1.16m0 2.41h-5.72c-.31 0-.55-.26-.55-.58s.24-.58.55-.58h5.72a.58.58 0 1 1 0 1.16m3.66-4.85h-1.54a.58.58 0 0 1 0-1.16h1.54a.58.58 0 0 1 0 1.16m0 2.44h-1.54a.6.6 0 0 1-.58-.58c0-.32.26-.58.58-.58h1.54a.58.58 0 0 1 0 1.16m0 2.41h-1.54a.58.58 0 0 1 0-1.16h1.54c.32 0 .57.26.57.58s-.25.58-.57.58m0 0"/></svg>
